X:850
T:Scandinavian Song of Great Antiquity., A
C:John Malchair's Third Collection of Tunes
F:https://www.vwml.org/record/Malchair/3619/p85
F:www.vwml.org/topics/historic-dance-and-tune-books/Malchair
Z:Eric Conrad Apr 2020
M:C|
Q:1/2=90
L:1/4
K:F
F2 F2 | FG F2 | F2 A2 | z2 A2 | \
(AG) F2 | E2 F2 | !fermata!G4 | z2 A2 |
A2 A2 | B2 (AG) | F2 !fermata!E2 | G2 G2 | \
F2 EF | G2 G2 | !fermata!F4 | F2 F2 |
(FG) F2 | F2 !fermata!A2 | z2 A2 | (AG) F2 | \
E2 F2 | !fermata!G4 | z2 A2 |
A2 A2 | B2 AG | F2 !fermata!E2 | G2 G2 | \
F2 (EF) | G2 !fermata!F2 |]

